tools/download-figma-icons/icons/solid/glass-fiber.svg

<svg width="24" height="24" viewBox="0 0 24 24" fill="none" xmlns="http://www.w3.org/2000/svg">
<path fill-rule="evenodd" clip-rule="evenodd" d="M23.246 3.30226C23.2547 3.30226 23.2612 3.30225 23.2655 3.30222C23.6802 3.31122 24.008 3.65322 23.9997 4.06797C23.9922 4.47672 23.657 4.80297 23.2497 4.80297C23.2478 4.80277 23.2474 4.80263 23.2469 4.80253C23.2457 4.80227 23.2443 4.80241 23.2077 4.80297C23.0045 4.80297 21.7175 4.82472 20.1132 5.23122C19.7 6.18747 19.0992 7.31471 18.2247 8.52146C19.88 8.20271 21.491 8.24397 21.779 8.25521C22.1915 8.27096 22.5155 8.61897 22.4997 9.03372C22.4832 9.44697 22.1345 9.79046 21.7205 9.75446C20.5625 9.70947 17.3015 9.84371 16.1307 10.968L13.7082 13.2975C13.562 13.4377 13.3745 13.5067 13.187 13.5067C12.9905 13.5067 12.794 13.4302 12.647 13.2772C12.3597 12.978 12.3695 12.5032 12.6672 12.216L15.0852 9.89172C16.475 8.50047 17.4297 7.12646 18.0905 5.92722C17.2437 6.30596 16.394 6.80997 15.6282 7.48571C15.6181 7.49545 15.6063 7.50127 15.5944 7.50718C15.5861 7.51128 15.5777 7.51543 15.5697 7.52097C15.5412 7.55258 15.5136 7.58451 15.486 7.61648C15.4391 7.67096 15.392 7.72556 15.3395 7.77896L11.774 11.343C11.627 11.4892 11.4357 11.5627 11.2437 11.5627C11.0517 11.5627 10.859 11.4892 10.7127 11.343C10.4195 11.0497 10.4195 10.575 10.7127 10.2817L14.2782 6.71771C16.6055 4.38897 15.7775 0.967465 15.7685 0.932965C15.6672 0.531715 15.9102 0.123715 16.313 0.0224655C16.7135 -0.0772845 17.123 0.164215 17.2235 0.566965C17.2535 0.683965 17.7132 2.59947 17.1102 4.73022C17.747 4.41896 18.3815 4.17222 18.992 3.98247C19.4 2.89058 19.4995 2.18837 19.5034 2.16055L19.5035 2.15997C19.5552 1.74972 19.9205 1.45647 20.3397 1.50672C20.75 1.55772 21.0417 1.92897 20.9937 2.33922C20.9877 2.39397 20.93 2.83872 20.723 3.55497C22.0787 3.30308 23.076 3.30238 23.246 3.30226ZM14.7753 15.5396C14.9253 15.3896 14.9928 15.2021 14.9928 15.0071C14.9928 14.8121 14.9253 14.6246 14.7753 14.4746C14.4821 14.1821 14.0096 14.1821 13.7178 14.4746C13.5146 14.6696 13.1103 14.7079 12.6153 14.5804C11.9703 14.4071 11.2503 13.9579 10.6503 13.3496C10.0578 12.7646 9.62284 12.0371 9.44958 11.3629C9.30783 10.8071 9.38283 10.4254 9.52533 10.2821C9.66708 10.1396 9.74284 9.94464 9.74284 9.75714C9.74284 9.56214 9.66708 9.36714 9.52533 9.22464C9.23209 8.93214 8.75283 8.93214 8.46033 9.22464L0.585336 17.1071C-0.532164 18.2171 -0.0146643 20.2946 1.84534 22.1546C3.05284 23.3546 4.35034 23.9996 5.41459 23.9996C5.99284 23.9996 6.50284 23.8121 6.89284 23.4146L14.7753 15.5396Z" fill="black"/>
</svg>

<svg xmlns="http://www.w3.org/2000/svg" width="24" height="24" fill="none" viewBox="0 0 24 24"><path fill="currentColor" fill-rule="evenodd" d="M23.246 3.302h.02a.75.75 0 0 1-.016 1.501h-.043c-.203 0-1.49.022-3.094.428a17.3 17.3 0 0 1-1.888 3.29c1.655-.318 3.266-.277 3.554-.266a.75.75 0 0 1 .72.779c-.016.413-.364.756-.778.72-1.158-.045-4.42.09-5.59 1.214l-2.423 2.33a.75.75 0 0 1-1.04-1.082l2.417-2.324a17.7 17.7 0 0 0 3.005-3.965 9.7 9.7 0 0 0-2.462 1.559q-.016.013-.034.021l-.024.014-.084.095q-.069.083-.147.163l-3.565 3.564a.75.75 0 1 1-1.061-1.061l3.565-3.564c2.327-2.329 1.5-5.75 1.49-5.785a.75.75 0 1 1 1.456-.366c.03.117.49 2.032-.114 4.163a13 13 0 0 1 1.882-.748c.408-1.091.508-1.794.511-1.821V2.16a.75.75 0 0 1 1.49.18c-.005.054-.063.499-.27 1.215a14 14 0 0 1 2.523-.253m-8.47 12.238a.74.74 0 0 0 .217-.533.747.747 0 0 0-1.275-.532c-.203.195-.608.233-1.103.105-.645-.173-1.365-.622-1.965-1.23-.592-.585-1.027-1.313-1.2-1.987-.142-.556-.067-.938.075-1.08a.754.754 0 0 0 0-1.058.756.756 0 0 0-1.065 0L.585 17.107c-1.117 1.11-.6 3.188 1.26 5.048C3.053 23.355 4.35 24 5.415 24c.578 0 1.088-.188 1.478-.585z" clip-rule="evenodd"/></svg>
